img/icons/laptop.svg

<svg width="17" height="13" viewBox="0 0 17 13" fill="none" xmlns="http://www.w3.org/2000/svg">
<path d="M15.6109 8.81847V3.60191C15.6109 1.73885 14.0933 0 12.0554 0H4.94457C2.90671 0 1.38915 1.73885 1.38915 3.60191V8.81847C-0.822155 9.60509 -0.25849 13 2.12625 13H14.8738C17.2585 13 17.8222 9.60509 15.6109 8.81847ZM4.94457 1.44904H12.0554C13.2695 1.44904 14.18 2.48408 14.18 3.60191V8.65287H11.2316C10.6246 8.65287 10.3211 8.98408 9.9742 9.39809H7.0258C6.67893 8.98408 6.37542 8.65287 5.76839 8.65287H2.81999V3.60191C2.81999 2.48408 3.73053 1.44904 4.94457 1.44904ZM14.8738 11.551H2.12625C1.17235 11.551 1.17235 10.1019 2.12625 10.1019H5.76839C6.11526 10.5159 6.41877 10.8471 7.0258 10.8471H9.9742C10.5812 10.8471 10.8847 10.5159 11.2316 10.1019H14.8738C15.8276 10.1019 15.8276 11.551 14.8738 11.551Z" fill="white"/>
</svg>

<svg width="17" height="13" fill="none" xmlns="http://www.w3.org/2000/svg"><path d="M15.61 8.818V3.602C15.61 1.739 14.094 0 12.056 0h-7.11C2.907 0 1.389 1.739 1.389 3.602v5.216C-.822 9.605-.258 13 2.126 13h12.748c2.385 0 2.948-3.395.737-4.182ZM4.946 1.45h7.11c1.215 0 2.125 1.035 2.125 2.153v5.05h-2.948c-.607 0-.91.332-1.258.746H7.026c-.347-.414-.65-.745-1.258-.745H2.82V3.602c0-1.118.91-2.153 2.125-2.153Zm9.929 10.102H2.126c-.954 0-.954-1.45 0-1.45h3.642c.347.415.65.746 1.258.746h2.948c.607 0 .91-.331 1.258-.745h3.642c.954 0 .954 1.449 0 1.449Z" fill="#fff"/></svg>
